X:1
T:Royal Fort, 86.886
T:Royal Fort, 86.886
T:Edwin John Orchard, 1863
T:Public Domain Courtesy of the Cyber Hymnal™
C:Edwin John Orchard, 1863
Z:Public Domain
Z:Courtesy of the Cyber Hymnal™
%%score ( 1 2 ) ( 3 4 )
L:1/8
Q:1/4=120
M:3/4
K:Eb
V:1 treble 
V:2 treble 
V:3 bass 
V:4 bass 
V:1
 [EB]2 | B4 [EB]2 | B4 [DB]2 | B4 [EB]2 | [DB]4 [Fd]2 | (e2 d2) c2 | B4 A2 | [EG]4 [EG]2 | %8
 [EA]4 [Ec]2 | (B2 F2) [FA]2 | G4 [EG]2 | [DG]4 [EG]2 | ([EG]2 [DF]2) [_DG]2 | A4 [EB]2 | %14
 (c2 B2) [EG]2 | [DF]4 D2 | E4 [=A,E]2 | ([B,E]2 [EG]2) [DF]2 | E4 |] %19
V:2
 x2 | (E2 D2) x2 | (D2 F2) x2 | (E2 D2) x2 | x6 | E4 (AG) | (F2 E2) (ED) | x6 | x6 | D4 x2 | %10
 (E2 F2) x2 | x6 | x6 | (C2 E2) x2 | E4 x2 | x4 D2 | (_D2 C2) x2 | x6 | E4 |] %19
V:3
 [E,G,]2 | G,2 [F,A,]2 [E,G,]2 | [B,,F,]4 [A,B,]2 | ([G,B,]2 [F,A,]2) [E,G,]2 | [B,,F,]4 [A,B,]2 | %5
 [G,B,]4 A,2 | [G,B,]4 (CB,) | [E,B,]4 [_D,B,]2 | [C,C]4 [A,,C]2 | (F,2 B,2) [D,B,]2 | %10
 ([E,B,]2 [=B,,D]2) [C,C]2 | [G,=B,]4 [E,_B,]2 | (B,2 A,2) [E,B,]2 | [E,C]4 [E,G,]2 | %14
 (A,2 G,2) [E,B,]2 | [B,,B,]4 [A,,B,]2 | ([G,,B,]2 [A,,A,]2) [C,F,]2 | (G,2 B,2) [B,,A,]2 | %18
 [E,G,]4 |] %19
V:4
 x2 | G,2 x4 | x6 | x6 | x6 | x4 A,2 | x4 F,2 | x6 | x6 | B,,4 x2 | x6 | x6 | E,4 x2 | x6 | %14
 E,4 x2 | x6 | x6 | B,,4 x2 | x4 |] %19

